flaticon/household/office-chair-11.svg

<svg xmlns="http://www.w3.org/2000/svg" width="32" height="32" viewBox="0 0 24 24">
    <path d="M 18.398438 20.421875 L 18.398438 20 C 18.398438 19.988281 18.394531 19.976562 18.394531 19.964844 C 18.390625 19.9375 18.386719 19.914062 18.378906 19.886719 C 18.371094 19.863281 18.363281 19.839844 18.351562 19.816406 C 18.339844 19.792969 18.324219 19.773438 18.308594 19.753906 C 18.292969 19.734375 18.277344 19.714844 18.257812 19.699219 C 18.238281 19.683594 18.21875 19.671875 18.195312 19.65625 C 18.171875 19.644531 18.148438 19.632812 18.121094 19.625 C 18.109375 19.621094 18.101562 19.613281 18.089844 19.609375 L 13.199219 18.480469 L 13.199219 18 L 12.398438 18 L 12.398438 17.199219 L 13.199219 17.199219 L 13.199219 16 L 13.601562 16 L 13.601562 14.964844 L 14.917969 16.28125 C 14.953125 16.320312 14.996094 16.347656 15.046875 16.371094 C 15.097656 16.390625 15.148438 16.398438 15.199219 16.398438 L 16.398438 16.398438 C 16.621094 16.398438 16.800781 16.222656 16.800781 16 C 16.800781 15.777344 16.621094 15.601562 16.398438 15.601562 L 15.367188 15.601562 L 14.566406 14.800781 L 17.316406 14.800781 C 18.574219 14.800781 19.601562 13.777344 19.601562 12.515625 L 19.601562 10.515625 C 19.601562 10.011719 19.1875 9.601562 18.683594 9.601562 L 17.601562 9.601562 L 17.601562 5.566406 C 17.601562 4.988281 17.910156 4.441406 18.40625 4.144531 C 19.140625 3.699219 19.601562 2.894531 19.601562 2.035156 C 19.601562 0.914062 18.6875 0 17.566406 0 L 6.433594 0 C 5.3125 0 4.398438 0.914062 4.398438 2.035156 L 4.398438 2.210938 C 4.398438 2.960938 4.738281 3.660156 5.324219 4.128906 L 5.777344 4.492188 C 6.171875 4.808594 6.402344 5.28125 6.402344 5.789062 L 6.402344 9.601562 L 5.316406 9.601562 C 4.8125 9.601562 4.398438 10.011719 4.398438 10.515625 L 4.398438 12.515625 C 4.398438 13.777344 5.425781 14.800781 6.683594 14.800781 L 10.398438 14.800781 L 10.398438 16 L 10.800781 16 L 10.800781 17.199219 L 11.601562 17.199219 L 11.601562 18 L 10.800781 18 L 10.800781 18.480469 L 5.910156 19.609375 C 5.898438 19.613281 5.890625 19.621094 5.878906 19.625 C 5.851562 19.632812 5.828125 19.644531 5.804688 19.65625 C 5.78125 19.671875 5.761719 19.683594 5.742188 19.699219 C 5.722656 19.714844 5.707031 19.734375 5.691406 19.753906 C 5.675781 19.773438 5.660156 19.792969 5.648438 19.816406 C 5.636719 19.839844 5.628906 19.863281 5.621094 19.886719 C 5.613281 19.914062 5.609375 19.9375 5.605469 19.964844 C 5.605469 19.976562 5.601562 19.988281 5.601562 20 L 5.601562 20.421875 C 4.703125 20.519531 4 21.277344 4 22.199219 C 4 23.191406 4.808594 24 5.800781 24 C 6.792969 24 7.601562 23.191406 7.601562 22.199219 C 7.601562 21.417969 7.097656 20.757812 6.398438 20.511719 L 6.398438 20.316406 L 10.800781 19.304688 L 10.800781 19.433594 L 9.832031 20.402344 C 9.820312 20.402344 9.8125 20.398438 9.800781 20.398438 C 8.808594 20.398438 8 21.207031 8 22.199219 C 8 23.191406 8.808594 24 9.800781 24 C 10.792969 24 11.601562 23.191406 11.601562 22.199219 C 11.601562 21.539062 11.238281 20.96875 10.710938 20.65625 L 11.367188 20 L 12.632812 20 L 13.289062 20.65625 C 12.761719 20.96875 12.398438 21.539062 12.398438 22.199219 C 12.398438 23.191406 13.207031 24 14.199219 24 C 15.191406 24 16 23.191406 16 22.199219 C 16 21.207031 15.191406 20.398438 14.199219 20.398438 C 14.1875 20.398438 14.179688 20.402344 14.167969 20.402344 L 13.199219 19.433594 L 13.199219 19.304688 L 17.601562 20.316406 L 17.601562 20.511719 C 16.902344 20.757812 16.398438 21.417969 16.398438 22.199219 C 16.398438 23.191406 17.207031 24 18.199219 24 C 19.191406 24 20 23.191406 20 22.199219 C 20 21.277344 19.296875 20.519531 18.398438 20.421875 Z M 6.277344 3.871094 L 5.824219 3.507812 C 5.425781 3.191406 5.199219 2.71875 5.199219 2.210938 L 5.199219 2.035156 C 5.199219 1.355469 5.753906 0.800781 6.433594 0.800781 L 17.566406 0.800781 C 18.246094 0.800781 18.800781 1.355469 18.800781 2.035156 C 18.800781 2.613281 18.492188 3.160156 17.992188 3.457031 C 17.257812 3.898438 16.800781 4.707031 16.800781 5.566406 L 16.800781 9.609375 C 16.789062 9.609375 16.777344 9.613281 16.765625 9.617188 C 16.738281 9.621094 16.714844 9.625 16.6875 9.632812 C 16.65625 9.640625 16.625 9.648438 16.59375 9.660156 C 16.570312 9.671875 16.546875 9.679688 16.527344 9.691406 C 16.496094 9.703125 16.46875 9.71875 16.441406 9.738281 C 16.421875 9.75 16.398438 9.761719 16.378906 9.777344 C 16.355469 9.796875 16.328125 9.816406 16.304688 9.839844 C 16.289062 9.855469 16.269531 9.871094 16.253906 9.890625 C 16.230469 9.914062 16.210938 9.9375 16.191406 9.964844 C 16.175781 9.984375 16.160156 10 16.148438 10.023438 C 16.128906 10.050781 16.113281 10.082031 16.097656 10.113281 C 16.089844 10.132812 16.078125 10.152344 16.066406 10.171875 C 16.054688 10.207031 16.042969 10.246094 16.035156 10.28125 C 16.027344 10.300781 16.023438 10.320312 16.019531 10.339844 C 16.007812 10.398438 16 10.457031 16 10.515625 L 16 11.199219 L 8 11.199219 L 8 10.515625 C 8 10.457031 7.992188 10.398438 7.980469 10.339844 C 7.976562 10.320312 7.972656 10.300781 7.964844 10.28125 C 7.957031 10.246094 7.945312 10.207031 7.929688 10.171875 C 7.921875 10.152344 7.910156 10.132812 7.902344 10.113281 C 7.886719 10.082031 7.871094 10.050781 7.851562 10.023438 C 7.839844 10.003906 7.824219 9.984375 7.808594 9.964844 C 7.789062 9.9375 7.769531 9.914062 7.746094 9.890625 C 7.730469 9.871094 7.710938 9.855469 7.695312 9.839844 C 7.671875 9.816406 7.644531 9.796875 7.621094 9.777344 C 7.601562 9.761719 7.578125 9.75 7.558594 9.738281 C 7.53125 9.71875 7.503906 9.703125 7.472656 9.691406 C 7.449219 9.679688 7.425781 9.671875 7.402344 9.660156 C 7.375 9.648438 7.34375 9.640625 7.3125 9.632812 C 7.285156 9.625 7.261719 9.621094 7.234375 9.617188 C 7.222656 9.613281 7.210938 9.609375 7.199219 9.609375 L 7.199219 5.789062 C 7.199219 5.039062 6.863281 4.339844 6.277344 3.871094 Z M 6.683594 14 C 5.863281 14 5.199219 13.335938 5.199219 12.515625 L 5.199219 10.515625 C 5.199219 10.453125 5.253906 10.398438 5.316406 10.398438 L 7.082031 10.398438 C 7.148438 10.398438 7.199219 10.453125 7.199219 10.515625 L 7.199219 12 L 16.800781 12 L 16.800781 10.515625 C 16.800781 10.453125 16.851562 10.398438 16.917969 10.398438 L 18.683594 10.398438 C 18.746094 10.398438 18.800781 10.453125 18.800781 10.515625 L 18.800781 12.515625 C 18.800781 13.335938 18.136719 14 17.316406 14 Z M 12.800781 14.800781 L 12.800781 15.199219 L 11.199219 15.199219 L 11.199219 14.800781 Z M 12.398438 16 L 12.398438 16.398438 L 11.601562 16.398438 L 11.601562 16 Z M 6.800781 22.199219 C 6.800781 22.75 6.351562 23.199219 5.800781 23.199219 C 5.25 23.199219 4.800781 22.75 4.800781 22.199219 C 4.800781 21.648438 5.25 21.199219 5.800781 21.199219 C 6.351562 21.199219 6.800781 21.648438 6.800781 22.199219 Z M 9.800781 23.199219 C 9.25 23.199219 8.800781 22.75 8.800781 22.199219 C 8.800781 21.648438 9.25 21.199219 9.800781 21.199219 C 10.351562 21.199219 10.800781 21.648438 10.800781 22.199219 C 10.800781 22.75 10.351562 23.199219 9.800781 23.199219 Z M 15.199219 22.199219 C 15.199219 22.75 14.75 23.199219 14.199219 23.199219 C 13.648438 23.199219 13.199219 22.75 13.199219 22.199219 C 13.199219 21.648438 13.648438 21.199219 14.199219 21.199219 C 14.75 21.199219 15.199219 21.648438 15.199219 22.199219 Z M 11.601562 18.800781 L 12.398438 18.800781 L 12.398438 19.199219 L 11.601562 19.199219 Z M 18.199219 23.199219 C 17.648438 23.199219 17.199219 22.75 17.199219 22.199219 C 17.199219 21.648438 17.648438 21.199219 18.199219 21.199219 C 18.75 21.199219 19.199219 21.648438 19.199219 22.199219 C 19.199219 22.75 18.75 23.199219 18.199219 23.199219 Z M 18.199219 23.199219"/>
    <path d="M12.398438 3.601562C12.398438 3.820312 12.222656 4 12 4 11.777344 4 11.601562 3.820312 11.601562 3.601562 11.601562 3.378906 11.777344 3.199219 12 3.199219 12.222656 3.199219 12.398438 3.378906 12.398438 3.601562zM12.398438 6C12.398438 6.222656 12.222656 6.398438 12 6.398438 11.777344 6.398438 11.601562 6.222656 11.601562 6 11.601562 5.777344 11.777344 5.601562 12 5.601562 12.222656 5.601562 12.398438 5.777344 12.398438 6zM12.398438 8.398438C12.398438 8.621094 12.222656 8.800781 12 8.800781 11.777344 8.800781 11.601562 8.621094 11.601562 8.398438 11.601562 8.179688 11.777344 8 12 8 12.222656 8 12.398438 8.179688 12.398438 8.398438zM12.398438 8.398438"/>
</svg>

<svg xmlns="http://www.w3.org/2000/svg" width="32" height="32" viewBox="0 0 24 24">
    <path d="M18.398 20.422V20c0-.012-.003-.023-.003-.035a.553.553 0 0 0-.043-.149c-.012-.023-.028-.043-.043-.062-.016-.02-.032-.04-.051-.055-.02-.015-.04-.027-.063-.043a.423.423 0 0 0-.074-.031c-.012-.004-.02-.012-.031-.016L13.2 18.48V18h-.802v-.8h.801V16h.403v-1.035l1.316 1.316c.035.04.078.067.129.09.05.02.101.027.152.027h1.2a.398.398 0 1 0 0-.796h-1.032l-.8-.801h2.75a2.288 2.288 0 0 0 2.285-2.285v-2a.919.919 0 0 0-.918-.914h-1.082V5.566c0-.578.308-1.125.804-1.421a2.482 2.482 0 0 0 1.196-2.11A2.039 2.039 0 0 0 17.566 0H6.434a2.039 2.039 0 0 0-2.036 2.035v.176c0 .75.34 1.45.926 1.918l.453.363c.395.317.625.79.625 1.297v3.813H5.316a.919.919 0 0 0-.918.914v2A2.288 2.288 0 0 0 6.684 14.8h3.714V16h.403v1.2h.8v.8h-.8v.48l-4.89 1.13c-.013.003-.02.011-.032.015-.027.008-.05.02-.074.031-.024.016-.043.028-.063.043-.02.016-.035.035-.05.055-.016.02-.032.039-.044.062a.522.522 0 0 0-.043.149c0 .012-.003.023-.003.035v.422A1.794 1.794 0 0 0 4 22.199C4 23.191 4.809 24 5.8 24c.993 0 1.802-.809 1.802-1.8 0-.782-.504-1.442-1.204-1.688v-.196l4.403-1.011v.129l-.969.968c-.012 0-.02-.004-.031-.004-.992 0-1.801.809-1.801 1.801C8 23.191 8.809 24 9.8 24c.993 0 1.802-.809 1.802-1.8 0-.66-.364-1.231-.891-1.544l.656-.656h1.266l.656.656c-.527.313-.89.883-.89 1.543 0 .992.808 1.801 1.8 1.801S16 23.191 16 22.2c0-.993-.809-1.802-1.8-1.802-.012 0-.02.004-.032.004l-.969-.968v-.13l4.403 1.012v.196c-.7.246-1.204.906-1.204 1.687 0 .992.809 1.801 1.801 1.801.992 0 1.801-.809 1.801-1.8 0-.923-.703-1.68-1.602-1.778zM6.278 3.872l-.454-.364A1.646 1.646 0 0 1 5.2 2.21v-.176c0-.68.555-1.234 1.235-1.234h11.132c.68 0 1.235.554 1.235 1.234 0 .578-.309 1.125-.809 1.422a2.474 2.474 0 0 0-1.191 2.11v4.042a.114.114 0 0 0-.035.008.553.553 0 0 0-.078.016c-.032.008-.063.015-.094.027-.024.012-.047.02-.067.031a.368.368 0 0 0-.086.047c-.02.012-.043.024-.062.04-.024.019-.05.038-.074.062-.016.015-.035.031-.051.05a.571.571 0 0 0-.063.075c-.015.02-.03.035-.043.058-.02.028-.035.059-.05.09a.427.427 0 0 1-.032.059 1.15 1.15 0 0 0-.03.11.897.897 0 0 0-.035.234l-.001.683H8v-.683a.897.897 0 0 0-.02-.176c-.003-.02-.007-.04-.015-.059a.593.593 0 0 0-.035-.11c-.008-.019-.02-.038-.028-.058-.015-.031-.03-.062-.05-.09a.559.559 0 0 0-.043-.058.571.571 0 0 0-.063-.074c-.016-.02-.035-.036-.05-.051-.024-.024-.051-.043-.075-.063-.02-.015-.043-.027-.062-.039a.368.368 0 0 0-.086-.047l-.07-.03c-.028-.013-.06-.02-.09-.028a.553.553 0 0 0-.079-.016.114.114 0 0 0-.035-.008V5.79c0-.75-.336-1.45-.922-1.918zM6.683 14c-.82 0-1.485-.664-1.485-1.484v-2a.12.12 0 0 1 .117-.118h1.766c.066 0 .117.055.117.118V12h9.602v-1.484c0-.063.05-.118.117-.118h1.766a.12.12 0 0 1 .117.118v2c0 .82-.664 1.484-1.485 1.484zm6.117.8v.4h-1.602v-.4zm-.403 1.2v.398h-.796V16zm-5.597 6.2c0 .55-.45 1-1 1-.551 0-1-.45-1-1 0-.552.449-1 1-1 .55 0 1 .448 1 1zm3 1c-.551 0-1-.45-1-1 0-.552.449-1 1-1 .55 0 1 .448 1 1 0 .55-.45 1-1 1zm5.398-1c0 .55-.449 1-1 1-.55 0-1-.45-1-1 0-.552.45-1 1-1 .551 0 1 .448 1 1zm-3.597-3.4h.796v.4h-.796zm6.597 4.4c-.55 0-1-.45-1-1 0-.552.45-1 1-1 .551 0 1 .448 1 1 0 .55-.449 1-1 1zm0 0"/>
    <path d="M12.398 3.602a.398.398 0 1 1-.796 0 .398.398 0 1 1 .796 0zm0 0M12.398 6a.395.395 0 0 1-.398.398.395.395 0 0 1-.398-.398c0-.223.175-.398.398-.398.223 0 .398.175.398.398zm0 0M12.398 8.398a.398.398 0 1 1-.796 0 .398.398 0 1 1 .796 0zm0 0"/>
</svg>
